!!!OTL: 545a. Zweifle nicht an meiner Treu!
!!!ODT: 1859
!!!ARE: Europa, Mitteleuropa, Deutschland, Hessen, Odenwald, Lindenfels
!!!SCT: E0545
!!!TXL: @@DE
!!!YEM: Copyright 1995, estate of Helmut Schaffrath.
**kern	**text
*ICvox	*
*M4/4	*
*met(c)	*
*k[f#]	*
*G:	*
=1	=1
!LO:TX:a:t=Lansam.	!
!LO:TX:a:t=Aus Lindenfels im Odenwald 1859.	!
{4.g	Schön-
8d	-ſtes
4g	Kind
4a	auf
=2	=2
(8.b\L	die-
16a	.
8bJ)	.
8cc	-ſer
(4b/	Erd,
4a)}	.
=3	=3
{8gq	.
4.b	ʒweif-
8a	-le
(8.bL	nicht
16cc	.
8ddJ)	.
8ee	an
=4	=4
(4dd	mei-
8cc)	.
8b	-ner
(4b/	Treu!
4a)}	.
=5	=5
{(8bq	.
4.dd)	Du
8cc	ſollſt
4b	ja
4dd	mein
=6	=6
4.dd	ei-
8cc	-gen,
4cc	ei-
4b	-gen
=7	=7
(8bL	wer-
8ccJ)	.
4a}	-den,
{(8bq	.
4.dd)	du
8cc	ſollſt
=8	=8
8bL	ja
8ee	.
8ddJ	.
8cc	mein
4b/	ei-
4a	-gen
=9	=9
2g	ſein.
2r}	.
=10	=10
{(8bq	.
4.dd)	Du
8cc	ſollſt
4b	ja
4dd	mein
=11	=11
4.dd	ei-
8cc	-gen,
4cc	ei-
4b	-gen
=12	=12
(8bL	wer-
8ccJ)	.
4a}	-den,
{(8bq	.
4.dd)	du
8cc	ſollſt
=13	=13
8bL	ja
8ee	.
8ddJ	.
8cc	mein
4b/	ei-
4a	-gen
=14	=14
2g	ſein.
2r}	.
==	==
!!!AGN: Liebes - Lied
!!!ONB: ESAC (Essen Associative Code) Database: ERK1
!!!AMT: simple quadruple
!!!AIN: vox
!!!EED: Helmut Schaffrath
!!!EEV: 1.0
!!!GTL: Liebeslieder [Neuere (aus dem 18. bis 19. Jahrh.) - Liebeslust]
!!!URL-scan: https://rosdok.uni-rostock.de/mcrviewer/recordIdentifier/rosdok_ppn745177662/iview2/phys_0374.iview2?x=-128.77276441889308&y=123.05394009454176&scale=0.5870222003877485&rotation=0&layout=singlePageLayout
!!!ENC: Anna Maria Matuszewska
!!!EEV: 2024/10/12
*-	*-
